X:121
T:Lime Hill
M:4/4
L:1/8
C:Dan R. MacDonald
K:A
a| "A"e<cc>B "E"A<F"F#m"F>A| "A"E<CE>F "E"A2 A>B| "C#m"c>Bc>e "F#m"f>ef<a|"E"e<c{d}c>A  "Bm"(B2 B<a)|
 |"A"e<cc>B "E"A<F"F#m"F>A| "A"E<CE>F "E"A2 A>B| "C#m"c>Bc>e "F#m"f>ef>a| "E"e<cB>c "A"A2 A||
d| "A"c<ee>f "E"e<ca>e|"A"c<ee>f "E"{gf}e2 e>a| "C#m"c<ff>a "F#m"f>e a/2g/2f/2e/2| "C#m"c<ff>g "F#m"f2 f>a|
 |"A"c<ee>f "E"e<ca>e |"C#m"c<ee>f "E"(e2 e>g)|"A"((3agf) "E"((3edc) "D"((3dfd) "C#m"((3cac)| "Bm"B<EG>B "A"A4||
